X:1
T:Title
%%score { ( 1 3 ) | ( 2 4 ) }
L:1/8
M:4/4
K:Bb
V:1 treble nm="Grand Piano"
V:3 treble 
V:2 bass 
V:4 bass 
V:1
 z4 z2[Q:1/4=94] [B,D][CE] | [DF][_D=E][=DF][DB] [Fd]2 [FB][FB] | [GB][GB][FA][EG] [DF]2 [DF][DF] | %3
 BBBB [=Ed][Ed][Ec][Ed] | c6 D[CE] | [DF][_D=E][=DF][DB] [Fd]2 [FB][FB] | %6
[M:3/4] [GB][GB] [FA][EG] [DF]2 |[M:1/4] [DB][Ec] |[M:35/32] dddB c2 d-(3:2:4d3/2-d/4c3/4-c/8 | %9
[M:3/4] B6 |[M:1/4] [_AB]2 |[M:4/4] (9:8:8[Ge][Ge][Ge]3/2[Ge] [Ge]/-[Ge]3/2[^FB]3/2[Fc] | d6 d2 | %13
 (9:8:8ccc3/2c c/-c3/2G3/2d | (9:8:8[Ac]2- [FA-c-]3/2[FA-c-] [FAc]/-[FA-c-]3/2[F-Ac]/FF | %15
[M:3/4] (7:8:7d3/4d-d/8d3/4c3/4B3/8-B3/2 |[M:1/4] (3:2:2F3/2F3/2 | %17
[M:9/8] (4:3:5GG-G/G/-G z [GB]2- [GB] z [^Fc] | %18
[M:35/32] (9:8:12d-d3/32d-d3/32d-d3/32B-B3/32 c2- c3/16 d2- d/- z3/64 (9:8:4d3/16-d3/64c/-c3/64 | %19
[M:3/4] B6 |] %20
V:2
 z4 z2 [B,,F,][B,,F,] | [B,,B,][B,,B,][B,,B,][B,,B,] [B,,B,]2 [D,B,][D,B,] | %2
 [E,B,][E,B,][E,B,][E,B,] [B,,B,]2 [B,,B,][B,,B,] | %3
 [G,B,D][G,B,D][G,B,D][G,B,D] [C,B,][C,B,][C,B,][C,B,] | [F,A,E]6 [B,,F,][B,,F,] | %5
 [B,,B,][B,,B,][B,,B,][B,,B,] [B,,B,]2 [D,B,][D,B,] |[M:3/4] [E,B,][E,B,] [E,B,][E,B,] [B,,B,]2 | %7
[M:1/4] [B,,B,][B,,B,] | %8
[M:35/32] [F,B,F][F,B,F][F,B,F][F,B,D] [F,A,E]2 [F,A,F]-(3:2:4[F,A,F]3/2-[F,A,F]/4[F,A,E]3/4-[F,A,E]/8 | %9
[M:3/4] B,6 |[M:1/4] [B,D]2 | %11
[M:4/4] (9:8:8[E,B,][E,B,][E,B,]3/2[E,B,] [E,B,]/-[E,B,]3/2[E,B,]3/2[E,B,] | %12
 (5:4:4B,2- B,/ B,B,3/2 B,2[K:treble] [B,FB]2 | %13
 (9:8:8[CFA][CFA][CFA]3/2[CFA] [C=EB]/-[CEB]3/2[CE]3/2[CEB] | %14
 (9:8:7[F,F]2 F,3/2F, F,/-F,3/2F,3/2F, | %15
[M:3/4][K:treble] (7:8:7[B,F]3/4[B,F]-[B,F]/8[K:bass][F,A,F]3/4[F,A,E]3/4[G,B,D]3/8-[G,B,D]3/2 | %16
[M:1/4] (3:2:2[D,B,]3/2[D,B,]3/2 | %17
[M:9/8] (4:3:5[E,B,E][E,B,E]-[E,B,E]/[E,B,E]/-[E,B,E] B,-[B,E-]/<E/-E- E-[E,-B,-E]/<[E,B,]/[E,B,] | %18
[M:35/32] (9:8:12[F,B,F]-[F,B,F]3/32[F,B,F]-[F,B,F]3/32[F,B,F]-[F,B,F]3/32[F,B,D]-[F,B,D]3/32 [F,A,E]2- [F,A,E]3/16 [F,A,F]2- [F,A,F]/- z3/64 (9:8:4[F,A,F]3/16-[F,A,F]3/64[F,A,E]/-[F,A,E]3/64 | %19
[M:3/4] z2 A,G, F,2 |] %20
V:3
 x8 | x8 | x8 | x8 | x8 | x8 |[M:3/4] x6 |[M:1/4] x2 |[M:35/32] x35/4 |[M:3/4] D6- | %10
[M:1/4] D/4 z/4 z/ z |[M:4/4] x8 | F6- F/4 z/4 z/ z | x8 | x8 |[M:3/4] x6 |[M:1/4] x2 | %17
[M:9/8] z3 [FA]-[FA]/4 z/4 z/ z z [GB]-[GB]/4 z/4 z/ |[M:35/32] x8 |[M:3/4] [B,D]2 FE D2 |] %20
V:4
 x8 | x8 | x8 | x8 | x8 | x8 |[M:3/4] x6 |[M:1/4] x2 |[M:35/32] x35/4 |[M:3/4] B,,6- | %10
[M:1/4] B,,/4 z/4 z/ z |[M:4/4] x8 | x6[K:treble] x2 | x8 | x8 | %15
[M:3/4][K:treble] x2[K:bass] x247/64 |[M:1/4] x2 |[M:9/8] z3 E, E,2- E, z z |[M:35/32] x8 | %19
[M:3/4] B,,6 |] %20

